X:20
T:Kitchen Girl
B:Complete Tractor, p.104
M:4/4
L:1/8
Z:abc-transcription Josh Larios <hades@elsewhere.org>, 2014.01.17
K:A mix
|:"A"a4"G"g4 | "A"ef ed c2 cd | "A"e2f2g2a2 | "E"g2e2e4 |
"A"a4"G"g4 | "A"ef ed c2 cd | e2f2 gf ed | "A"c2A2A2AB :|
K:Am
|:"Am"cB Ac "G"BA GB | "Am"AB AG E2 (3E^FG | A2B2c2d2 | "E"e4e2 AB |
"Am"cB Ac "G"BA GB | "Am"AB AG E2 AB | cB Ac "G"BA GB | "Am"A4 (A2A2) :|

